navbar-item-hover/assets/logos/logo.svg

<svg width="76" height="26" viewBox="0 0 76 26" fill="none" xmlns="http://www.w3.org/2000/svg">
<g clip-path="url(#clip0_1_4)">
<path d="M25.096 21.706C23.928 21.706 22.86 21.491 21.891 21.063C20.9413 20.6484 20.0813 20.053 19.359 19.31C18.6393 18.5482 18.0724 17.6554 17.689 16.68C17.2901 15.6665 17.0888 14.5861 17.096 13.497V13.438C17.096 12.308 17.294 11.248 17.689 10.254C18.0766 9.28076 18.643 8.38872 19.359 7.624C20.0812 6.86203 20.9518 6.25593 21.917 5.843C22.905 5.395 23.982 5.171 25.149 5.171C26.317 5.171 27.385 5.395 28.355 5.843C29.315 6.25283 30.1844 6.84861 30.913 7.596C31.6362 8.34366 32.2038 9.22739 32.583 10.196C32.978 11.189 33.176 12.25 33.176 13.38V13.438C33.176 14.568 32.969 15.639 32.556 16.652C32.1724 17.627 31.6056 18.5194 30.886 19.281C30.1535 20.0312 29.2855 20.6358 28.328 21.063C27.34 21.491 26.263 21.706 25.096 21.706ZM25.149 17.002C25.616 17.002 26.039 16.915 26.415 16.739C26.792 16.545 27.115 16.291 27.385 15.979C27.6589 15.64 27.869 15.2541 28.005 14.84C28.148 14.412 28.22 13.964 28.22 13.497V13.438C28.22 12.951 28.139 12.494 27.977 12.065C27.848 11.6422 27.6274 11.253 27.331 10.925C27.06 10.5929 26.7197 10.324 26.334 10.137C25.951 9.94094 25.5262 9.84074 25.096 9.845C24.629 9.845 24.206 9.942 23.83 10.137C23.4526 10.3125 23.1207 10.5725 22.86 10.897C22.598 11.2287 22.3975 11.6046 22.268 12.007C22.1219 12.4499 22.049 12.9136 22.052 13.38V13.438C22.052 13.925 22.124 14.383 22.268 14.811C22.429 15.24 22.645 15.62 22.914 15.951C23.201 16.262 23.534 16.515 23.91 16.711C24.288 16.905 24.699 17.002 25.149 17.002ZM52.487 2.6C52.487 1.91044 52.7609 1.24912 53.2485 0.761522C53.7361 0.273928 54.3974 0 55.087 0L55.193 0C55.8826 0 56.5439 0.273928 57.0315 0.761522C57.5191 1.24912 57.793 1.91044 57.793 2.6C57.793 3.28956 57.5191 3.95088 57.0315 4.43848C56.5439 4.92607 55.8826 5.2 55.193 5.2H55.087C54.3974 5.2 53.7361 4.92607 53.2485 4.43848C52.7609 3.95088 52.487 3.28956 52.487 2.6ZM52.595 7.015C52.595 6.88239 52.6477 6.75521 52.7415 6.66145C52.8352 6.56768 52.9624 6.515 53.095 6.515H57.185C57.3176 6.515 57.4448 6.56768 57.5386 6.66145C57.6323 6.75521 57.685 6.88239 57.685 7.015V20.825C57.685 20.9576 57.6323 21.0848 57.5386 21.1786C57.4448 21.2723 57.3176 21.325 57.185 21.325H53.095C52.9624 21.325 52.8352 21.2723 52.7415 21.1786C52.6477 21.0848 52.595 20.9576 52.595 20.825V7.015Z" fill="#4B2AAD"/>
<path fill-rule="evenodd" clip-rule="evenodd" d="M40.723 21.676C39.8664 21.677 39.0203 21.4874 38.246 21.121C37.4597 20.7202 36.7633 20.1636 36.199 19.485C35.606 18.785 35.13 17.927 34.771 16.915C34.431 15.902 34.26 14.763 34.26 13.497V13.438C34.26 12.153 34.43 11.004 34.771 9.991C35.131 8.959 35.597 8.092 36.171 7.391C36.764 6.671 37.447 6.125 38.219 5.755C38.9881 5.37055 39.8362 5.1706 40.696 5.171C40.696 5.171 44.053 5.2 45.146 6.686V1C45.146 0.734784 45.2514 0.48043 45.4389 0.292893C45.6264 0.105357 45.8808 0 46.146 0L49.258 0C49.5232 0 49.7776 0.105357 49.9651 0.292893C50.1526 0.48043 50.258 0.734784 50.258 1V20.826C50.258 20.9586 50.2053 21.0858 50.1116 21.1796C50.0178 21.2733 49.8906 21.326 49.758 21.326H45.64C45.5074 21.326 45.3802 21.2733 45.2864 21.1796C45.1927 21.0858 45.14 20.9586 45.14 20.826V20.057C43.689 21.543 40.723 21.676 40.723 21.676ZM43.417 16.769C43.057 16.944 42.672 17.032 42.259 17.032C41.846 17.032 41.459 16.944 41.1 16.768C40.7395 16.5915 40.4189 16.343 40.158 16.038C39.882 15.6955 39.6635 15.3105 39.511 14.898C39.3461 14.4291 39.2642 13.935 39.269 13.438V13.38C39.269 12.854 39.349 12.377 39.511 11.948C39.6548 11.5318 39.8741 11.1456 40.158 10.809C40.428 10.478 40.741 10.225 41.1 10.049C41.46 9.874 41.846 9.787 42.259 9.787C42.672 9.787 43.058 9.874 43.417 10.049C43.794 10.225 44.117 10.478 44.387 10.809C44.656 11.121 44.862 11.5 45.006 11.949C45.167 12.377 45.248 12.854 45.248 13.379V13.439C45.248 13.964 45.168 14.451 45.006 14.899C44.862 15.327 44.656 15.707 44.386 16.039C44.117 16.349 43.795 16.593 43.417 16.769ZM0 6.021C0 5.88839 0.0526784 5.76121 0.146447 5.66745C0.240215 5.57368 0.367392 5.521 0.5 5.521H4.617C4.74961 5.521 4.87679 5.57368 4.97055 5.66745C5.06432 5.76121 5.117 5.88839 5.117 6.021V6.881C5.117 6.881 6.445 5.755 8.053 5.375C8.53391 5.23433 9.03297 5.16559 9.534 5.171C10.396 5.171 11.214 5.366 11.985 5.755C12.775 6.125 13.467 6.661 14.059 7.362C14.652 8.062 15.119 8.92 15.459 9.932C15.819 10.945 15.999 12.085 15.999 13.351V13.409C15.999 14.694 15.819 15.853 15.459 16.885C15.119 17.898 14.652 18.765 14.059 19.485C13.5026 20.1716 12.8043 20.7296 12.012 21.121C11.24 21.491 10.423 21.676 9.562 21.676C9.562 21.676 6.189 21.676 5.097 20.429V25.5C5.097 25.6326 5.04432 25.7598 4.95055 25.8536C4.85679 25.9473 4.72961 26 4.597 26H0.5C0.367392 26 0.240215 25.9473 0.146447 25.8536C0.0526784 25.7598 0 25.6326 0 25.5V6.021ZM9.157 16.768C8.798 16.944 8.412 17.032 7.999 17.032C7.586 17.032 7.191 16.944 6.814 16.768C6.45311 16.5916 6.13218 16.3432 5.871 16.038C5.59536 15.6955 5.37719 15.3105 5.225 14.898C5.07787 14.4255 5.00533 13.9329 5.01 13.438V13.38C5.01 12.854 5.081 12.377 5.225 11.948C5.387 11.5 5.602 11.121 5.871 10.809C6.141 10.478 6.455 10.225 6.814 10.049C7.18488 9.87546 7.58953 9.786 7.999 9.787C8.412 9.787 8.799 9.874 9.157 10.049C9.517 10.225 9.831 10.478 10.1 10.809C10.37 11.121 10.585 11.5 10.746 11.949C10.908 12.377 10.989 12.854 10.989 13.379V13.439C10.989 13.964 10.908 14.451 10.746 14.899C10.6027 15.3155 10.3837 15.702 10.1 16.039C9.83 16.349 9.516 16.592 9.157 16.768ZM62.258 21.355C62.881 21.5743 63.5376 21.6829 64.198 21.676C64.198 21.676 67.718 21.543 68.506 20.429V20.826C68.506 20.9586 68.5587 21.0858 68.6524 21.1796C68.7462 21.2733 68.8734 21.326 69.006 21.326H73.043C73.1756 21.326 73.3028 21.2733 73.3966 21.1796C73.4903 21.0858 73.543 20.9586 73.543 20.826V12.24C73.543 5.287 66.433 5.287 66.433 5.287C65.176 5.287 64.08 5.403 63.147 5.637C62.375 5.817 61.635 6.054 60.927 6.345C60.8175 6.39084 60.7286 6.47507 60.6768 6.58187C60.6251 6.68867 60.6141 6.81069 60.646 6.925L61.436 9.852C61.516 10.142 61.831 10.297 62.113 10.193C62.593 10.016 63.063 9.871 63.523 9.756C64.2116 9.59351 64.9175 9.51528 65.625 9.523C65.625 9.523 68.587 9.285 68.587 11.772H65.032C64.17 11.772 63.389 11.879 62.689 12.093C61.989 12.288 61.387 12.6 60.884 13.028C60.4 13.438 60.014 13.953 59.726 14.577C59.456 15.2 59.322 15.92 59.322 16.738V16.797C59.322 17.576 59.448 18.267 59.699 18.871C59.951 19.475 60.292 19.991 60.723 20.419C61.153 20.829 61.665 21.14 62.258 21.355ZM67.86 17.5C67.393 17.967 66.783 18.201 66.029 18.201C65.508 18.201 65.077 18.055 64.736 17.763C64.736 17.763 63.886 16.343 64.736 15.23C64.736 15.23 65.743 14.103 68.587 15.23C68.587 17.278 67.86 17.5 67.86 17.5Z" fill="#4B2AAD"/>
</g>
<defs>
<clipPath id="clip0_1_4">
<rect width="76" height="26" fill="white"/>
</clipPath>
</defs>
</svg>

<svg xmlns="http://www.w3.org/2000/svg" fill="none" viewBox="0 0 76 26">

  <path fill="#4b2aad" d="M25.096 21.706c-1.168 0-2.236-.215-3.205-.643a7.988 7.988 0 01-2.532-1.753 8.196 8.196 0 01-1.67-2.63 8.537 8.537 0 01-.593-3.183v-.059c0-1.13.198-2.19.593-3.184a8.39 8.39 0 011.67-2.63 7.694 7.694 0 012.558-1.781c.988-.448 2.065-.672 3.232-.672 1.168 0 2.236.224 3.206.672a7.91 7.91 0 012.558 1.753 7.862 7.862 0 011.67 2.6c.395.993.593 2.054.593 3.184v.058c0 1.13-.207 2.201-.62 3.214a8.198 8.198 0 01-1.67 2.629 8.303 8.303 0 01-2.558 1.782c-.988.428-2.065.643-3.232.643zm.053-4.704c.467 0 .89-.087 1.266-.263.377-.194.7-.448.97-.76a3.6 3.6 0 00.62-1.139c.143-.428.215-.876.215-1.343v-.059c0-.487-.081-.944-.243-1.373a3.01 3.01 0 00-.646-1.14 2.946 2.946 0 00-.997-.788 2.659 2.659 0 00-1.238-.292c-.467 0-.89.097-1.266.292a2.71 2.71 0 00-.97.76 3.543 3.543 0 00-.592 1.11 4.294 4.294 0 00-.216 1.373v.058c0 .487.072.945.216 1.373.161.429.377.809.646 1.14.287.311.62.564.996.76.378.194.79.291 1.24.291zM52.487 2.6a2.6 2.6 0 012.6-2.6h.106a2.6 2.6 0 010 5.2h-.106a2.6 2.6 0 01-2.6-2.6zm.108 4.415a.5.5 0 01.5-.5h4.09a.5.5 0 01.5.5v13.81a.5.5 0 01-.5.5h-4.09a.5.5 0 01-.5-.5V7.016z"></path>
  <path fill="#4b2aad" fill-rule="evenodd" d="M40.723 21.676a5.775 5.775 0 01-2.477-.555 6.504 6.504 0 01-2.047-1.636c-.593-.7-1.069-1.558-1.428-2.57-.34-1.013-.511-2.152-.511-3.418v-.059c0-1.285.17-2.434.511-3.447.36-1.032.826-1.899 1.4-2.6.593-.72 1.276-1.266 2.048-1.636a5.534 5.534 0 012.477-.584s3.357.029 4.45 1.515V1a1 1 0 011-1h3.112a1 1 0 011 1v19.826a.5.5 0 01-.5.5H45.64a.5.5 0 01-.5-.5v-.769c-1.451 1.486-4.417 1.62-4.417 1.62zm2.694-4.907c-.36.175-.745.263-1.158.263-.413 0-.8-.088-1.159-.264a2.942 2.942 0 01-.942-.73 4.062 4.062 0 01-.647-1.14 4.275 4.275 0 01-.242-1.46v-.058c0-.526.08-1.003.242-1.432a3.58 3.58 0 01.647-1.139c.27-.331.583-.584.942-.76.36-.175.746-.262 1.159-.262.413 0 .799.087 1.158.262.377.176.7.429.97.76.269.312.475.691.619 1.14.161.428.242.905.242 1.43v.06c0 .525-.08 1.012-.242 1.46-.144.428-.35.808-.62 1.14-.269.31-.592.554-.97.73zM0 6.021a.5.5 0 01.5-.5h4.117a.5.5 0 01.5.5v.86s1.328-1.126 2.936-1.506a5.08 5.08 0 011.481-.204c.862 0 1.68.195 2.451.584.79.37 1.482.906 2.074 1.607.593.7 1.06 1.558 1.4 2.57.36 1.013.54 2.153.54 3.419v.058c0 1.285-.18 2.444-.54 3.476-.34 1.013-.807 1.88-1.4 2.6a6.128 6.128 0 01-2.047 1.636c-.772.37-1.589.555-2.45.555 0 0-3.373 0-4.465-1.247V25.5a.5.5 0 01-.5.5H.5a.5.5 0 01-.5-.5V6.021zm9.157 10.747c-.359.176-.745.264-1.158.264-.413 0-.808-.088-1.185-.264a2.941 2.941 0 01-.943-.73 4.06 4.06 0 01-.646-1.14 4.76 4.76 0 01-.215-1.46v-.058c0-.526.071-1.003.215-1.432.162-.448.377-.827.646-1.139.27-.331.584-.584.943-.76a2.78 2.78 0 011.185-.262c.413 0 .8.087 1.158.262.36.176.674.429.943.76.27.312.485.691.646 1.14.162.428.243.905.243 1.43v.06c0 .525-.081 1.012-.243 1.46a3.577 3.577 0 01-.646 1.14c-.27.31-.584.554-.943.73zM62.258 21.355a5.664 5.664 0 001.94.321s3.52-.133 4.308-1.247v.397a.5.5 0 00.5.5h4.037a.5.5 0 00.5-.5V12.24c0-6.953-7.11-6.953-7.11-6.953-1.257 0-2.353.116-3.286.35-.772.18-1.512.417-2.22.708a.487.487 0 00-.281.58l.79 2.927c.08.29.395.445.677.341.48-.177.95-.322 1.41-.437a8.738 8.738 0 012.102-.233s2.962-.238 2.962 2.249h-3.555c-.862 0-1.643.107-2.343.321-.7.195-1.302.507-1.805.935-.484.41-.87.925-1.158 1.549-.27.623-.404 1.343-.404 2.161v.059c0 .779.126 1.47.377 2.074.252.604.593 1.12 1.024 1.548.43.41.942.72 1.535.935zM67.86 17.5c-.467.467-1.077.701-1.831.701-.521 0-.952-.146-1.293-.438 0 0-.85-1.42 0-2.533 0 0 1.007-1.127 3.851 0 0 2.048-.727 2.27-.727 2.27z" clip-rule="evenodd"></path>
</svg>
